X: 10104
T: Diferion Arian
R: slip jig
M: 9/8
K: Gmajor
|:G2 B BcB d2 B|G2 B BcB A2 D|G2 B BcB d2 B|c2 A ABG F2 D:|
|:GBd gfg e2 c|GB/c/d gfg d2 B|GBd gfg afd|bag fed cBA:|

